!!!id: BC017
!!!page: 25
!!!COM: Musique de Do-Mi-Sol
!!!LYR: (Anonyme)
!!!PTL@@FR: Les 100 plus belles chansons
!!!OTL@@FR: Dans la forêt prochaine
!!!PUB:La Bonne Chanson, inc.
!!!YEM: On ne peut reproduire, enregistrer ou diffuser en tout ou en partie le présent ouvrage, sous quelque procédé que ce soit, électronique, mécanique, photographique, sonore, magnétique ou autre, sans avoir obtenu au préalable l'autorisation écrite de l'éditrice.
!!!PDT: 2011
!!!SMA: 2012 Bibliothèque nationale du Québec; Biblothèque nationale du Canada
!!!AGN-Laforte: Canon a trois parties, 1:1(6+6+6+6+8)
!!!AGN-type: Chanson d'enfants; la nature
!!!AGN-rime: monorime (aaa)
!!!EED: Isaac Howie
!!!EEV: 2025/May/27
**kern	**text
*clefG2	*
*k[b-]	*
*D:	*
*M2/4	*
*	*pline:1
*>A	*>A
!!LO:TX:a:B:t=A
!!!OMD:Moderato
8c	Dans
=1	=1
8f	la
8e	fo-
8f	-rêt
8g	pro-
=2	=2
4a	-chai-
8a	-ne,
8a	On
!!LO:PB:g=original
=3	=3
8g	en-
8f	-tend
8g	le
8a	hi-
=4	=4
4f	-bou,
*	*rp:u
*	*rf:u
*	*rs:a
8r	.
=||	=||
*>B	*>B
!!LO:TX:a:B:t=B
8cc	Et
=5	=5
8a	sur
8g	le
8a	haut
8b-	d'un
!!LO:PB:g=original
=6	=6
4cc	chê-
8cc	-ne,
8cc	On
=7	=7
8b-	en-
8a	-tend
8b-	le
8cc	cou-
=8	=8
4a	-cou:
*	*rp:u
*	*rf:u
*	*rs:a
8r	.
=||	=||
*>C	*>C
!!LO:TX:a:B:t=C
8cc	Cou-
!!LO:PB:g=original
=9	=9
8cc	-cou,
*	*bis
8r	.
8r	.
8cc	cou-
=10	=10
8f	-cou!
8r	.
8r	.
8cc	Cou-
=11	=11
8cc	-cou,
8r	.
8r	.
8cc	cou-
=12	=12
4ff	-cou!
*	*Xbis
*	*rp:u
*	*rf:u
*	*rs:a
8r	.
==	==
*-	*-
